X: 10055
T: Dick Sherlock's
R: reel
M: 4/4
K: Dmajor
dB|:AF F2 BFAF|DEFA BABd|eB B2 egfe|dfed BcdB|
AF F2 BFAF|DEFA BABd|egfg efdB|1 AFGE D2:|2 AFGE D2 A2||
|:d2 de fefg|afbf afdf|eB B2 gBBe|fedf efdB|
AF F2 ABdf|afbf afdf|g2fg efdB|1 AFGE D2FA:|2 AFGE D2||

